X: 16161
T: Green Linnet, The
R: reel
M: 4/4
K: Amajor
A2 ae cBAc|BAGB gdBG|A2 ae cBAc|BGdB cAAB:|
|:ABcd ecBA|BGBd gdBG|1 ABcd ecBA|BGdB cAAB|2 AcBd cedf|edcB cAAB||

